fonts/svg/globe-24.svg

<svg xmlns="http://www.w3.org/2000/svg" width="24" height="24" viewBox="0 0 24 24"><path fill-rule="evenodd" d="M12 1C5.925 1 1 5.925 1 12s4.925 11 11 11 11-4.925 11-11S18.075 1 12 1zM2.513 11.5h4.745c.1-3.037 1.1-5.49 2.093-7.204.39-.672.78-1.233 1.119-1.673C6.11 3.329 2.746 7 2.513 11.5zm4.77 1.5H2.552a9.505 9.505 0 007.918 8.377 15.698 15.698 0 01-1.119-1.673C8.413 18.085 7.47 15.807 7.283 13zm1.504 0h6.426c-.183 2.48-1.02 4.5-1.862 5.951-.476.82-.95 1.455-1.304 1.88L12 20.89l-.047-.057a13.888 13.888 0 01-1.304-1.88C9.807 17.5 8.969 15.478 8.787 13zm6.454-1.5H8.759c.1-2.708.992-4.904 1.89-6.451.476-.82.95-1.455 1.304-1.88L12 3.11l.047.057c.353.426.828 1.06 1.304 1.88.898 1.548 1.79 3.744 1.89 6.452zm1.476 1.5c-.186 2.807-1.13 5.085-2.068 6.704-.39.672-.78 1.233-1.118 1.673A9.505 9.505 0 0021.447 13h-4.731zm4.77-1.5h-4.745c-.1-3.037-1.1-5.49-2.093-7.204-.39-.672-.78-1.233-1.119-1.673 4.36.706 7.724 4.377 7.957 8.877z"/></svg>

<?xml version="1.0" encoding="UTF-8" standalone="no"?>
<svg
   xmlns:dc="http://purl.org/dc/elements/1.1/"
   xmlns:cc="http://creativecommons.org/ns#"
   xmlns:rdf="http://www.w3.org/1999/02/22-rdf-syntax-ns#"
   xmlns:svg="http://www.w3.org/2000/svg"
   xmlns="http://www.w3.org/2000/svg"
   xmlns:sodipodi="http://sodipodi.sourceforge.net/DTD/sodipodi-0.dtd"
   xmlns:inkscape="http://www.inkscape.org/namespaces/inkscape"
   width="24"
   height="24"
   viewBox="0 0 24 24"
   version="1.1"
   id="svg10552"
   sodipodi:docname="globe-24.svg"
   inkscape:version="1.0.1 (c497b03c, 2020-09-10)">
  <metadata
     id="metadata10558">
    <rdf:RDF>
      <cc:Work
         rdf:about="">
        <dc:format>image/svg+xml</dc:format>
        <dc:type
           rdf:resource="http://purl.org/dc/dcmitype/StillImage" />
      </cc:Work>
    </rdf:RDF>
  </metadata>
  <defs
     id="defs10556" />
  <sodipodi:namedview
     pagecolor="#ffffff"
     bordercolor="#666666"
     borderopacity="1"
     objecttolerance="10"
     gridtolerance="10"
     guidetolerance="10"
     inkscape:pageopacity="0"
     inkscape:pageshadow="2"
     inkscape:window-width="1440"
     inkscape:window-height="900"
     id="namedview10554"
     showgrid="false"
     inkscape:zoom="25.875"
     inkscape:cx="12"
     inkscape:cy="12"
     inkscape:window-x="0"
     inkscape:window-y="0"
     inkscape:window-maximized="0"
     inkscape:current-layer="svg10552" />
  <path
     fill-rule="evenodd"
     d="M 12,1 C 5.925,1 1,5.925 1,12 1,18.075 5.925,23 12,23 18.075,23 23,18.075 23,12 23,5.925 18.075,1 12,1 Z M 10.47,2.623 C 10.131,3.063 9.741,3.624 9.351,4.296 8.358,6.01 7.358,8.463 7.258,11.5 H 2.513 C 2.746,7 6.11,3.329 10.47,2.623 Z M 9.351,19.704 c 0.3368283,0.581029 0.710596,1.139844 1.119,1.673 C 6.2454585,20.686202 3.0038962,17.256729 2.552,13 h 4.731 c 0.187,2.807 1.13,5.085 2.068,6.704 z M 8.787,13 h 6.426 c -0.183,2.48 -1.02,4.5 -1.862,5.951 -0.476,0.82 -0.95,1.455 -1.304,1.88 L 12,20.89 11.953,20.833 C 11.467365,20.243265 11.031219,19.614465 10.649,18.953 9.807,17.5 8.969,15.478 8.787,13 Z m 6.454,-1.5 H 8.759 c 0.1,-2.708 0.992,-4.904 1.89,-6.451 0.476,-0.82 0.95,-1.455 1.304,-1.88 L 12,3.11 12.047,3.167 c 0.353,0.426 0.828,1.06 1.304,1.88 0.898,1.548 1.79,3.744 1.89,6.452 z m 1.475,1.5 h 4.731 c -0.451679,4.256107 -3.692242,7.685389 -7.916,8.377 0.338,-0.44 0.728,-1.001 1.118,-1.673 0.938,-1.619 1.882,-3.897 2.068,-6.704 z m 4.771,-1.5 H 16.742 C 16.642,8.463 15.642,6.01 14.649,4.296 14.259,3.624 13.869,3.063 13.53,2.623 17.89,3.329 21.254,7 21.487,11.5 Z"
     id="path10550"
     sodipodi:nodetypes="ssssscccccccccccccccccccccccccccccccccccccc" />
</svg>
